icons/line/question-mark-circle.svg

<svg width="24" height="24" viewBox="0 0 24 24" fill="none" xmlns="http://www.w3.org/2000/svg">
<path fill-rule="evenodd" clip-rule="evenodd" d="M4 12C4 7.58172 7.58172 4 12 4C16.4183 4 20 7.58172 20 12C20 16.4183 16.4183 20 12 20C7.58172 20 4 16.4183 4 12ZM12 2C6.47715 2 2 6.47715 2 12C2 17.5228 6.47715 22 12 22C17.5228 22 22 17.5228 22 12C22 6.47715 17.5228 2 12 2ZM12 8C10.8954 8 10 8.89543 10 10C10 10.5523 9.55228 11 9 11C8.44772 11 8 10.5523 8 10C8 7.79086 9.79086 6 12 6C14.2091 6 16 7.79086 16 10C16 11.7522 14.874 13.2388 13.3091 13.7806C13.186 13.8232 13.0903 13.8901 13.0372 13.9489C13.0114 13.9774 13.0026 13.9952 13 14.0027V14.5C13 15.0523 12.5523 15.5 12 15.5C11.4477 15.5 11 15.0523 11 14.5V14C11 12.8475 11.9238 12.1437 12.6547 11.8907C13.4391 11.6191 14 10.8738 14 10C14 8.89543 13.1046 8 12 8ZM12.9991 14.0069C12.9989 14.0069 12.999 14.0056 12.9999 14.003C12.9997 14.0056 12.9992 14.0069 12.9991 14.0069ZM11 17C11 16.4477 11.4477 16 12 16H12.01C12.5623 16 13.01 16.4477 13.01 17C13.01 17.5523 12.5623 18 12.01 18H12C11.4477 18 11 17.5523 11 17Z" fill="currentColor"/>
</svg>

<svg width="24" height="24" fill="none" xmlns="http://www.w3.org/2000/svg"><path fill-rule="evenodd" clip-rule="evenodd" d="M4 12a8 8 0 1116 0 8 8 0 01-16 0zm8-10C6.477 2 2 6.477 2 12s4.477 10 10 10 10-4.477 10-10S17.523 2 12 2zm0 6a2 2 0 00-2 2 1 1 0 11-2 0 4 4 0 115.31 3.78.674.674 0 00-.273.169.177.177 0 00-.037.054v.497a1 1 0 11-2 0V14c0-1.152.924-1.856 1.655-2.11A2.001 2.001 0 0012 8zm1 6.007v-.004.004zM11 17a1 1 0 011-1h.01a1 1 0 110 2H12a1 1 0 01-1-1z" fill="currentColor"/></svg>
